lg/svelte-icon.svg

<svg viewBox="0 0 256 308" version="1.1" xmlns="http://www.w3.org/2000/svg" preserveAspectRatio="xMidYMid" height="1em" width="1em">
  <g>
    <path d="M239.681566,40.706757 C211.113272,-0.181889366 154.69089,-12.301439 113.894816,13.6910393 L42.2469062,59.3555354 C22.6760042,71.6680028 9.1958152,91.6538543 5.11196889,114.412133 C1.69420521,133.371174 4.6982178,152.928576 13.6483951,169.987905 C7.51549676,179.291145 3.33259428,189.7413 1.3524912,200.706787 C-2.77083771,223.902098 2.62286977,247.780539 16.3159596,266.951444 C44.8902975,307.843936 101.312954,319.958266 142.10271,293.967161 L213.75062,248.302665 C233.322905,235.991626 246.803553,216.005094 250.885557,193.246067 C254.302867,174.287249 251.30121,154.730228 242.355449,137.668922 C248.486748,128.365895 252.667894,117.916162 254.646134,106.951413 C258.772188,83.7560394 253.378243,59.8765465 239.682665,40.706757" fill="#FF3E00"/>
    <path d="M106.888658,270.841265 C83.7871855,276.848065 59.3915045,267.805346 45.7864111,248.192566 C37.5477583,236.66102 34.3023491,222.296573 36.7830958,208.343155 C37.1989333,206.075414 37.7711933,203.839165 38.4957755,201.650433 L39.845476,197.534835 L43.5173097,200.231763 C51.9971301,206.462491 61.4784803,211.199728 71.5527203,214.239302 L74.2164003,215.047419 L73.9710252,217.705878 C73.6455499,221.487851 74.6696022,225.262925 76.8616703,228.361972 C80.9560313,234.269749 88.3011363,236.995968 95.2584831,235.190159 C96.8160691,234.773852 98.3006859,234.121384 99.6606718,233.25546 L171.331634,187.582718 C174.877468,185.349963 177.321139,181.729229 178.065299,177.605596 C178.808171,173.400048 177.830501,169.072361 175.351884,165.594581 C171.255076,159.685578 163.908134,156.9582 156.947927,158.762547 C155.392392,159.178888 153.90975,159.83088 152.551509,160.695872 L125.202489,178.130144 C120.705281,180.989558 115.797437,183.144784 110.64897,184.521162 C87.547692,190.527609 63.1523949,181.484801 49.5475471,161.872188 C41.3085624,150.340895 38.0631179,135.976391 40.5442317,122.023052 C43.0002744,108.333716 51.1099574,96.3125326 62.8835328,88.9089537 L134.548175,43.2323647 C139.047294,40.3682559 143.958644,38.21032 149.111311,36.8336525 C172.21244,30.8273594 196.607527,39.8700206 210.212459,59.4823515 C218.451112,71.013898 221.696522,85.3783452 219.215775,99.3317627 C218.798144,101.59911 218.225915,103.835236 217.503095,106.024485 L216.153395,110.140083 L212.483484,107.447276 C204.004261,101.212984 194.522,96.4735732 184.44615,93.4336926 L181.78247,92.6253012 L182.027845,89.9668419 C182.350522,86.1852063 181.326723,82.4111645 179.1372,79.3110228 C175.042839,73.4032457 167.697734,70.677026 160.740387,72.4828355 C159.182801,72.8991426 157.698185,73.5516104 156.338199,74.4175344 L84.6672364,120.0922 C81.1218886,122.323199 78.6795938,125.943704 77.9387928,130.066574 C77.1913232,134.271925 78.1673502,138.601163 80.6469865,142.078963 C84.7438467,147.987899 92.0907405,150.71526 99.0509435,148.910997 C100.608143,148.493836 102.092543,147.841423 103.452857,146.976298 L130.798305,129.548621 C135.293566,126.685437 140.201191,124.528302 145.350175,123.152382 C168.451453,117.145935 192.846751,126.188743 206.451598,145.801356 C214.690583,157.332649 217.936027,171.697153 215.454914,185.650492 C212.997261,199.340539 204.888162,211.362752 193.115613,218.769811 L121.450695,264.442553 C116.951576,267.306662 112.040226,269.464598 106.887559,270.841265" fill="#FFFFFF"/>
  </g>
</svg>

<svg viewBox="0 0 256 308" xmlns="http://www.w3.org/2000/svg" preserveAspectRatio="xMidYMid" height="1em" width="1em">
  <path d="M239.682 40.707C211.113-.182 154.69-12.301 113.895 13.69L42.247 59.356a82.198 82.198 0 0 0-37.135 55.056 86.566 86.566 0 0 0 8.536 55.576 82.425 82.425 0 0 0-12.296 30.719 87.596 87.596 0 0 0 14.964 66.244c28.574 40.893 84.997 53.007 125.787 27.016l71.648-45.664a82.182 82.182 0 0 0 37.135-55.057 86.601 86.601 0 0 0-8.53-55.577 82.409 82.409 0 0 0 12.29-30.718 87.573 87.573 0 0 0-14.963-66.244" fill="#FF3E00"/>
  <path d="M106.889 270.841c-23.102 6.007-47.497-3.036-61.103-22.648a52.685 52.685 0 0 1-9.003-39.85 49.978 49.978 0 0 1 1.713-6.693l1.35-4.115 3.671 2.697a92.447 92.447 0 0 0 28.036 14.007l2.663.808-.245 2.659a16.067 16.067 0 0 0 2.89 10.656 17.143 17.143 0 0 0 18.397 6.828 15.786 15.786 0 0 0 4.403-1.935l71.67-45.672a14.922 14.922 0 0 0 6.734-9.977 15.923 15.923 0 0 0-2.713-12.011 17.156 17.156 0 0 0-18.404-6.832 15.78 15.78 0 0 0-4.396 1.933l-27.35 17.434a52.298 52.298 0 0 1-14.553 6.391c-23.101 6.007-47.497-3.036-61.101-22.649a52.681 52.681 0 0 1-9.004-39.849 49.428 49.428 0 0 1 22.34-33.114l71.664-45.677a52.218 52.218 0 0 1 14.563-6.398c23.101-6.007 47.497 3.036 61.101 22.648a52.685 52.685 0 0 1 9.004 39.85 50.559 50.559 0 0 1-1.713 6.692l-1.35 4.116-3.67-2.693a92.373 92.373 0 0 0-28.037-14.013l-2.664-.809.246-2.658a16.099 16.099 0 0 0-2.89-10.656 17.143 17.143 0 0 0-18.398-6.828 15.786 15.786 0 0 0-4.402 1.935l-71.67 45.674a14.898 14.898 0 0 0-6.73 9.975 15.9 15.9 0 0 0 2.709 12.012 17.156 17.156 0 0 0 18.404 6.832 15.841 15.841 0 0 0 4.402-1.935l27.345-17.427a52.147 52.147 0 0 1 14.552-6.397c23.101-6.006 47.497 3.037 61.102 22.65a52.681 52.681 0 0 1 9.003 39.848 49.453 49.453 0 0 1-22.34 33.12l-71.664 45.673a52.218 52.218 0 0 1-14.563 6.398" fill="#FFF"/>
</svg>
